X:66
T:Braes o' Balquhidder, The
R:Air
C:Words written by Robert Tannahill 1774-1810.
N:it's vaguely like The Duke of Bucclugh's Tune in Playford, 1687
B:G.F. Graham, The Popular Songs and Melodies of Scotland (1900)
M:2/4
L:1/8
Q:1/4=96
K:D
% hexatonic, G missing
F>A|B2 A>D|F2 F>A|B2 A>F|F<E F>A|B2 A>D|F2 F>A|B>c d>B |A<F||
F>A|B>c d>B|A<F f>e|d<B A>F|F<E F>A|B>c d>B|A<F f>e|dB AF |F<E||
F>A|B2 A>D|F2 F>A|B2 A>F|F<E F>A|B2 A>D|F2 F>A|B>c e/d/c/B/|A<F|]

